src/icon/entity/cashback-bonus/icon_cashback-bonus_l_white.svg

<svg xmlns="http://www.w3.org/2000/svg" width="36" height="36" viewBox="0 0 36 36">
  <g fill="none" fill-rule="evenodd">
    <rect width="36" height="36"/>
    <g transform="translate(1 1)">
      <path fill="#FFF" d="M29.0724999,11.7580606 C32.0652811,14.0145128 34,17.5994993 34,21.6363636 C34,28.4646115 28.4646115,34 21.6363636,34 C17.5994993,34 14.0145128,32.0652811 11.7580606,29.0724999 C12.7029203,29.26343 13.680667,29.3636364 14.6818182,29.3636364 C22.7903625,29.3636364 29.3636364,22.7903625 29.3636364,14.6818182 C29.3636364,13.680667 29.26343,12.7029203 29.0724999,11.7580606 Z" opacity=".3"/>
      <circle cx="14.682" cy="14.682" r="14.182" stroke="#FFF"/>
      <path fill="#FFF" fill-rule="nonzero" d="M15.9503788,9.05682301 C16.0405303,9.33725817 18.125606,15.9353941 18.1874242,16.1331369 C18.2054546,16.1877857 18.1938636,16.2791069 18.1198106,16.3114649 C18.0464015,16.3438228 16.9626515,16.8306295 16.9027652,16.8565157 C16.8428788,16.8831211 16.7752651,16.8442917 16.7533713,16.7752615 C16.7308334,16.7069503 16.2543181,15.0919314 16.2034469,14.930861 L13.2136364,14.9164798 L12.6160606,16.7752615 C12.5948106,16.8414155 12.5304167,16.8859974 12.4666667,16.8565157 L11.2502652,16.3114649 C11.1884313,16.2820006 11.1581331,16.2035841 11.1813636,16.1331369 C11.2586364,15.8857788 13.3115151,9.39406427 13.4171212,9.05682301 C13.6199621,8.40247431 13.8820455,7.72727273 14.684394,7.72727273 C15.4873863,7.72727273 15.7398107,8.39168833 15.9503788,9.05682301 Z M10.8181818,19.5321548 L10.8181818,21.1083443 C10.8181818,21.1874413 10.8716288,21.25 10.9379545,21.25 L18.4269697,21.25 C18.4926514,21.25 18.5454545,21.1874413 18.5454545,21.1083443 L18.5454545,19.5321548 C18.5454545,19.4530577 18.4926514,19.3904991 18.4269697,19.3904991 L10.9379545,19.3904991 C10.8716288,19.3897801 10.8181818,19.4537767 10.8181818,19.5321548 Z M13.6257576,13.4423975 L15.7320833,13.4423975 L14.7912879,9.89740942 L14.545947,9.89740942 L13.6257576,13.4423975 Z"/>
    </g>
  </g>
</svg>

<svg xmlns="http://www.w3.org/2000/svg" width="36" height="36" viewBox="0 0 36 36"><g fill="none" fill-rule="evenodd"><path d="M0 0h36v36H0z"/><g transform="translate(1 1)"><path fill="#FFF" d="M29.072 11.758A12.345 12.345 0 0 1 34 21.636C34 28.465 28.465 34 21.636 34a12.345 12.345 0 0 1-9.878-4.928c.945.191 1.923.292 2.924.292 8.108 0 14.682-6.574 14.682-14.682 0-1.001-.1-1.98-.292-2.924z" opacity=".3"/><circle cx="14.682" cy="14.682" r="14.182" stroke="#FFF"/><path fill="#FFF" fill-rule="nonzero" d="M15.95 9.057c.09.28 2.176 6.878 2.237 7.076.018.055.007.146-.067.178l-1.217.546c-.06.026-.128-.013-.15-.082-.022-.068-.499-1.683-.55-1.844l-2.99-.015-.597 1.86c-.021.065-.086.11-.15.08l-1.216-.545c-.062-.029-.092-.107-.069-.178l2.236-7.076c.203-.655.465-1.33 1.267-1.33.803 0 1.056.665 1.266 1.33zm-5.132 10.475v1.576c0 .08.054.142.12.142h7.489c.066 0 .118-.063.118-.142v-1.576c0-.079-.052-.142-.118-.142h-7.489c-.066 0-.12.064-.12.142zm2.808-6.09h2.106l-.94-3.545h-.246l-.92 3.545z"/></g></g></svg>
